X:1
T:Missa Sanctae Crucis
T:Missa Sanctae Crucis
T:Oliver Hayes
C:Oliver Hayes
%%score [ 1 2 3 4 ]
L:1/8
Q:1/4=150
M:4/2
K:C
V:1 treble nm="Soprano"
V:2 treble nm="Alto"
V:3 treble-8 nm="Tenor"
V:4 bass nm="Bass"
V:1
"^Andante Sostinuto" z16 | z16 | z16 | z16 | z16 | z8 A8 | B4 d4 c6 B2 | A8 B8 | c6 B2 A8 | %9
w: |||||Ky-|* ri- e e-|le- i-|son, _ _|
 G12 A2 B2 | c4 B4 A4 d2 c2 | B2 A2 G4 A8- | A8 A8 | A16 || A8 A4 A4 | G8 G2 A2 B4 | A4 B4 c4 ^c4 | %17
w: Ky- ri- *|e _ e- le- *||* i-|son.|Chri- ste e-|lei- son, _ e-|lei- * * *|
 d4 =c2 B2 A8 | A8 _B4 B4 | _B4 G4 F4 B2 A2 | A4 G12 | A4 A8 A4 | A8 A4 A4 | G8 B4 G4 | A16 || %25
w: son, _ _ _|Chri- ste e-|lei- * son, e- *|lei- *|son, Chri- ste,|Chri- ste e-|lei- * *|son.|
 F8 G8 | A4 F4 G4 _B4 | A2 G2 F4 G8 | G6 G2 A4 A4 | _B8 c2 B2 A4 | G4 F2 E2 D8 | F6 E2 D8 | %32
w: Ky- *|* ri- e e-|le- * i- son,|Ky- ri- e e-|le- * * *|* i- * son,|Ky- ri- e,|
 D6 E2 F4 F4 | G8 A8 || %34
w: Ky- ri- e e-|lei- son.|
[M:3/1][Q:1/4=360]"^Piu Moso\nA semi-breve is equal to a minum previously"[Q:1/4=360][Q:1/4=360][Q:1/4=360] A16 B8 | %35
w: Ky- ri-|
 A16 B8 | A8 F8 E8 | A16 d8 | c8 B4 A4 G8 | G16 A8 | A24- | A16 A8 | A16 G8 | A24 | A24 | %45
w: e e-|le- * i-|son, e-|le- * * i-|son, e-|le-|* i-|son, e-|le-|i-|
 !fermata!A24 |][Q:1/4=150][Q:1/4=150][Q:1/4=150][Q:1/4=150] z28"^Gloria" || %47
w: son.||
[M:2/2]"^Andante"!mf! d6 c2 | A4 G4 | G4 G2 A2 | G2 F2 D4 | F4 _B2 A2 | G2 F2 G4 | A6 A2 | d6 c2 | %55
w: et in|ter- ra|pax ho- *|mi- ni- bus|bo- nae _|vo- lun- ta-|tis. Lau-|da- *|
 A4 G4 | G4 G2 A2 | G2 F2 D4 | F8 | z8 | z8 | z4 z2 A2 | d6 c2 | =B2 A2 G4 | A8 | d4 cB A2 | A8 | %67
w: * mus|te, be- ne-|di- ci- mus|te,|||glo-|ri- fi-|ca- * mus|te.|Gra- * * ti-|as|
 G4 G2 G2 | A4 A4 | E6 F2 | G4 G4 | F2 E2 F4 | E6 D2 | F8 ||"^Strident" D4 C2 D2 | F4 D4 | %76
w: a- gi- mus|ti- bi,|pro- pter|ma- gnam|glo- ri- am|tu- *|am.|Do- mi- ne|De- us,|
 D4 C2 D2 | F2 D2 D2 C2 | D4 C2 D2 | F2 G2 F2 E2 | D4 E2 D2 | F8 | D4 C2 D2 | F2 D4 C2 | D4 C2 D2 | %85
w: Rex cae- *|le- * stis, _|De- us _|Pa- * ter om-|ni- po- *|tens.|Do- mi- ne|Fi- * li|u- ni- *|
 F2 D2 D4 |"^Allargando" A6 G2 | A2 G2 E2 G2 | A8 |"^A tempo" A4 G2 A2 | c4 A2 G2 | A4 G2 A2 | %92
w: ge- ni- te,|Je- *|su _ Chri- *|ste.|Do- mi- ne|De- us, _|a- gnus _|
 c4 A4 | A4 c2 d2 | d8 | d8 || %96
w: De- i,|Fi- li- us|Pa-|tris.|
[M:3/4]"^Lento Sostinuto"[Q:1/4=105][Q:1/4=105][Q:1/4=105][Q:1/4=105] z6"^p" | [df]2 [df]2 [ce]2 | %98
w: |Qui tol- *|
 d4 c2 | A4 c2 | A4 c2 | B4 G2 | A6 | A2 A2 G2 | A2 G4 | F4 D2 | D6 | [df]2 [df]2 [ce]2 | d4 c2 | %109
w: lis pec-|ca- *|* ta|mun- *|di,|mi- se- *|re- re|no- *|bis.|Qui tol- *|lis pec-|
 A4 c2 | A4 c2 | B2 A2 G2 | A6 | G2 B2 d2 | A6 | B6 | A6 | _B4 G2 | A2 G2 F2 | F4 E2 | D6 | %121
w: ca- *|* ta|mun- * *|di,|su- sci- pe|de-||pre-|ca- ti-|o- * nem|no- *|stram.|
 d2 d2 c2 | A4 c2 | A4 G2 | F4 G2 | D4 C2 | F4 E2 | D6 | A2 A2 G2 | A4 G2 | F2 D4 | !fermata!D6 || %132
w: Qui se- *|des ad|dex- *||te- ram|Pa- *|tris,|mi- se- *|re- *|re no-|bis.|
[M:4/2]"^Andante Sostinuto"[Q:1/4=150]!mf![Q:1/4=150][Q:1/4=150][Q:1/4=150] A6 A2 A4 A2 B2 | %133
w: Quo- ni- am tu _|
 c4 B4 A4 F4 | G4 c4 B2 A2 G4 | ^F4 F4 A4 A4 | A8 A4 c4 | G4 G4 G8 |[M:3/2] G8 F4 | F12- | F8 _B4 | %141
w: so- lus san- *|ctus, tu so- * lus|Do- mi- nus, tu|so- lus al-|tis- si- mus,|Je- *||* su|
[M:4/2] A8 c4 =B4 | A8 G8 | A16 || z16 | z16 | z16 | z16 | z16 | z16 | G8 B4 c4 | %151
w: Chri- * *||ste.|||||||Cum san- cto|
 d6 e2 f2 e2 d2 c2 | A8 c6 c2 | B6 G2 A2 B2 c4 | A4 F4 G4 B4 | A4 B2 c2 d8 | A8 G4 d2 c2 | %157
w: Spi- * * * * *|* * ri-|tu, in glo- * *|ri- a De- i|Pa- * * tris,|A- * * *|
 A4 F4 G8 | A8 G4 d2 c2 | A4 F4 G8 | A16- | A8 d4 A4 | F8 G8- | G8 A8- | A16 |] %165
w: * * men,|A- * * *|* * men,|A-|* * men,|A- *|* men.|_|
"^Andante Sostinuto" d4 c4 A4 G4 | c4 B4 A4 B2 c2 |"^Sanctus" d8 !fermata!d8 | d4 c4 A4 c4 | %169
w: San- * ctus, _|san- * * ctus, _|san- ctus,|Do- * mi- nus|
 B4 A2 G2 A6 A2 | !fermata!A16 || z16 | z16 | z16 | z16 | z16 || F8 G8 | A12 F4 | G8 d4 c4 | %179
w: De- us _ Sa- ba-|oth.||||||Ho- *|san- na|in ex- *|
 A12 F4 | G8 A4 A4 | A16 | G16 | A16 || G12 G4 | A8 B4 c4 | ^c8 d4 A4 | c4 B2 A2 G8- | %188
w: cel- *|sis, in ex-|cel-||sis.|Be- ne-|di- ctus qui|ve- nit in|no- mi- * ne|
 G8 A4 d2 c2 | B2 A4 B2 A8 || F8 G8 | A12 F4 | G8 d4 c4 | A12 F4 | G8 A4 A4 | A16 | G16 | A16 || %198
w: _ Do- * *|* * mi- ni.|Ho- *|san- na|in ex- *|cel- *|sis, in ex-|cel-||sis.|
"^Andante Sostinuto" A12 G4 | G8 A4 F4 |"^Agnus Dei" G4 d2 c2 A4 G4 | G8 G8 | A12 A4 | %203
w: Ag- nus|De- i, qui|tol- lis pec- ca- ta|mun- di,|mi- se-|
[M:3/2] G8 A4 |[M:4/2] B8 !fermata!A8 || [df]6 [ce]2 [Ad]4 c4 | d4 c4 A6 A2 | d4 d2 c2 A4 G4 | %208
w: re- re-|no- bis.|Ag- * * nus|De- * i, qui|tol- lis pec- ca- ta|
 A8 A8 | G8 F8 | F12 F4 | G8 !fermata!A8 || D8 G8 | A6 F2 D4 G4 | A8 A6 A2 | B4 G4 c4 B2 A2 | %216
w: mun- di,|mi- se-|re- re|no- bis.|Ag- nus|De- * i, qui|tol- lis pec-|ca- * * * *|
 G8 F8 | G16 | !fermata!G16 || z16 | z16 | z16 | z16 | z16 | z16 | G8 B4 c4 | d6 e2 f2 e2 d2 c2 | %227
w: * ta|mun-|di,|||||||do- * na|no- * * * * *|
 A8 c8 | B6 G2 A4 B4 | A12 A4 | A8 G8 | A8 B4 c4 | d16- | d16- | d16 | d16 |] %236
w: bis pa-|* * cem, _|do- na|no- bis|pa- * *||||cem.|
V:2
 z16 | z16 | z16 | D8 E4 G4 | F6 E2 D8 | G8 F4 E4 | D8 C8 | F8 G8 | A4 G4 F8 | E4 E4 D8 | %10
w: |||Ky- * ri-|e _ _|e- le- i-|son, _|Ky- ri-|e _ e-|le- i- son,|
 E8 F4 A4 | G8 F8 | E12 E4 | F16 || F8 E4 F4 | D8 D8 | F8 A8- | A4 G4 D8 | F8 F4 G4 | %19
w: Ky- * ri-|e e-|le- i-|son.|Chri- ste e-|lei- son,|e- lei-|* * son,|Chri- ste e-|
 G4 _E4 D4 F4- | F4 =E4 D8 | F4 F8 F4 | E8 F4 F4 | D16 | F16 || D8 E8 | F4 C4 E4 F4 | F4 C2 D2 E8 | %28
w: lei- * son, e-|* * lei-|son, Chri- ste,|Chri- ste e-|lei-|son.|Ky- *|* ri- e e-|le- i- * son,|
 D4 D4 F4 F4 | F8 F8 | D8 B,4 C4 | D6 D2 D8 | D6 E2 D4 C4 | B,8 D8 ||[M:3/1] F16 G8 | F12 E4 D8 | %36
w: Ky- ri- e e-|le- i-|son, Ky- *|* ri- e,|Ky- ri- e e-|lei- son.|Ky- ri-|e e- le-|
 F8 A16 | F16 D8 | E8 C8 B,8 | C16 F8 | F24 | E16 E8 | F16 D8 | F24 | E24 | !fermata!F24 |] z28 || %47
w: * i-|son, e-|le- * i-|son, e-|le-|* i-|son, e-|le-|i-|son.||
[M:2/2]!mf! A6 G2 | F2 E2 D4 | E4 D4 | D2 D2 D4 | D2 D2 F4 | E4 D4 | F6 F2 | F2 G2 A2 G2 | %55
w: et in|ter- * ra|pax ho-|mi- ni- bus|bo- nae vo-|lun- ta-|tis. Lau-|da- * * *|
 F2 E2 D4 | E4 D2 D2 | D4 D2 D2 | C8 | F4 _B2 A2 | G2 F2 _E4 | F6 F2 | F6 G2 | G4 D2 E2 | F8 | %65
w: * * mus|te, be- ne-|di- ci- mus|te,|a- * do-|ra- * mus|te, glo-|ri- fi-|ca- mus _|te.|
 F6 F2 | E8 | E4 E2 E2 | F4 F4 | E6 C2 | D4 D4 | C4 D4 | E6 D2 | D8 ||"^f" D4 C2 D2 | F4 D4 | %76
w: Gra- ti-|as|a- gi- mus|ti- bi,|pro- pter|ma- gnam|glo- ri-|am tu-|am.|Do- mi- ne|De- us,|
 D4 C2 D2 | F2 D2 D2 C2 | D4 C2 D2 | F2 G2 F2 E2 | D4 C2 B,2 | D8 | D4 C2 D2 | F2 D4 C2 | %84
w: Rex cae- *|le- * stis, _|De- us _|Pa- * ter om-|ni- po- *|tens.|Do- mi- ne|Fi- * li|
 D4 C2 D2 | F2 D2 D4 | F6 C2 | D2 E2 C2 D2 | F8 | D4 C2 D2 | F4 D4 | D4 C2 D2 | F4 D4 | F4 F2 G2 | %94
w: u- ni- *|ge- ni- te,|Je- *|su _ Chri- *|ste.|Do- mi- ne|De- us,|a- gnus _|De- i,|Fi- li- us|
 A8 | A8 ||[M:3/4] z6"^p" | A2 A2 G2 | A4 G2 | F4 G2 | F4 G2 | G4 D2 | F6 | F2 F2 D2 | E2 E4 | %105
w: Pa-|tris.||Qui tol- *|lis pec-|ca- *|* ta|mun- *|di,|mi- se- *|re- re|
 D4 B,2 | D6 | A2 A2 G2 | A4 G2 | F4 G2 | F4 G2 | G4 D2 | F6 | z6 | D2 F2 A2 | G6 | F6 | D4 D2 | %118
w: no- *|bis.|Qui tol- *|lis pec-|ca- *|* ta|mun- *|di,||su- sci- pe|de-|pre-|ca- ti-|
 F4 F2 | D4 C2 | D6 | A2 A2 G2 | F4 G2 | F4 E2 | D4 E2 | D4 E2 | D4 E2 | B,6 | F2 F2 D2 | E6 | %130
w: o- nem|no- *|stram.|Qui se- *|des ad|dex- *||te- ram|Pa- *|tris,|mi- se- *|re-|
 D2 B,2 C2 | !fermata!D6 ||[M:4/2]!mf! F6 F2 F4 F4 | G6 G2 C8 | E4 G4 G4 D4 | D6 D2 C4 C4 | %136
w: re no- *|bis.|Quo- ni- am tu|so- lus san-|ctus, tu so- lus|Do- mi- nus, tu|
 C8 C4 C4 | E4 E4 D8 |[M:3/2] D12- | D8 C4 | D8 F4 |[M:4/2] F8 A4 G4 | F8 D8 | F16 || z16 | z16 | %146
w: so- lus al-|tis- si- mus,|Je-||* su|Chri- * *||ste.|||
 z16 | z16 | D8 F4 G4 | A6 B2 c2 B2 A2 G2 | G4 F2 E2 D4 E4 | F2 E2 D4 C4 G4 | F8 G8 | %153
w: ||Cum san- cto|Spi- * * * * *|ri- * * tu, in|glo- * * ri- a|De- i|
 D2 E2 F2 G2 F4 G4 | F8 D6 E2 | F8 D8 | F8 D8 | F4 D4 B,4 D4 | F4 E4 D8 | F2 E2 D2 C2 B,8 | %160
w: Pa- * * * tris, _|De- * i|Pa- tris,|A- men,|A- * * *|* * men,|A- * * * *|
 ^C8 D8 | E8 F8- | F8 D8 | E8 F8- | F16 |] A4 G4 F4 E4 | G8 D4 G4 | A8 !fermata!A8 | A4 G4 F4 G4 | %169
w: |* men,|_ A-|* men.|_|San- * ctus, _|san- * ctus,|san- ctus,|Do- * mi- nus|
 G4 D4 E4 E4 | !fermata!^F16 || D8 =F4 E4 | D8 G4 F4 | E4 C4 D8 | F8 E4 G2 F2 | %175
w: De- us Sa- ba-|oth.|Ple- ni sunt|cae- li et|ter- * ra|glo- ri- a _|
 D6 G2 !fermata!G8 || D12 E4 | F12 D4 | D8 G8 | F16 | D8 E4 E4 | F16 | E12 D4 | F16 || E12 D4 | %185
w: tu- * a.|Ho- *|san- na|in ex-|cel-|sis, in ex-|cel-||sis.|Be- ne-|
 F4 E4 D4 E4 | E8 D4 F4 | A4 F4 E4 D2 C2 | D4 E4 F2 G2 F4- | F4 E4 F8 || D12 E4 | F12 D4 | D8 G8 | %193
w: di- * ctus qui|ve- nit in|no- * mi- ne _|Do- * * * *|* mi- ni.|Ho- *|san- na|in ex-|
 F16 | D8 E4 E4 | F16 | E12 D4 | F16 || F12 E4 | D8 F4 D4 | D4 D2 D2 F4 E4 | D8 D8 | F12 F4 | %203
w: cel-|sis, in ex-|cel-||sis.|Ag- nus|De- i, qui|tol- lis pec- ca- ta|mun- di,|mi- se-|
[M:3/2] C8 E4 |[M:4/2] G8 !fermata!F8 || A6 G2 F4 G4 | A4 G4 D6 D2 | A4 A2 G2 F4 E4 | F8 F8 | %209
w: re- re|no- bis.|Ag- * * nus|De- * i, qui|tol- lis pec- ca- ta|mun- di,|
 D12 D4 | D12 C4 | D4 E4 !fermata!F8 || D8 D6 E2 | F2 E2 D4 D6 E2 | F6 E2 D4 D4 | B,8 E4 F4 | D16 | %217
w: mi- se-|re- re|no- * bis.|Ag- nus _|_ _ De- i, qui|tol- * lis pec-|ca- * *|ta|
 D8 E8- | E8 !fermata!D8 || z16 | z16 | z16 | z16 | D8 F4 G4 | A6 B2 c2 B2 A2 G2 | G4 F2 E2 D4 E4 | %226
w: mun- *|* di,|||||do- * na|no- * * * * *|* * * * bis|
 F2 E2 D4 C4 G4 | F8 G8 | D2 E2 G4 F4 G4 | F8 E8 | F4 E4 D8 | F8 E8 | F4 G4 A8 | G8 F8 | D8 E8 | %235
w: pa- * * * *|* cem,|do- * * na _|no- bis|pa- * cem,|do- *|* * na|no- bis|pa- *|
 F16 |] %236
w: cem.|
V:3
 z16 | z8 A8 | B4 d4 c6 B2 | A8 c4 d4 | c8 A4 B2 c2 | d4 e4 c8 | f8 e8 | f4 e4 d8 | c8 d4 c4 | %9
w: |Ky-|* ri- e _|_ e- *|le- i- * *|* * son,|Ky- ri-|e _ e-|le- * i-|
 B16 | e6 e2 d8- | d4 B4 d8- | d4 ^c2 B2 c8 | d16 || d8 ^c4 d4 | B6 A2 G8 | d8 f4 e4 | d4 e4 f8 | %18
w: son,|Ky- ri- e|_ e- le-|* * * i-|son.|Chri- ste e-|lei- * son,|e- lei- *|* * son,|
 d8 d4 _e4 | _e4 _B8 d4 | c8 =B4 G4 | d4 d8 d4 | ^c8 d4 d4 | B4 A4 G2 A2 B2 c2 | d16 || A8 c8 | %26
w: Chri- ste e-|lei- son, e-|lei- * *|son, Chri- ste,|Chri- ste e-|lei- * * * * *|son.|Ky- *|
 c4 A4 c4 d4 | c4 A4 G8 | =B4 B4 d4 d4 | d4 c2 _B2 A4 c4 | =B16 | A6 A2 B8 | A6 A2 _B4 c4 | %33
w: * ri- e e-|le- i- son,|Ky- ri- e e-|le- * * * i-|son,|Ky- ri- e,|Ky- ri- e e-|
 d4 e4 f8 ||[M:3/1] d8 c8 e8 | d16 B8 | d16 ^c8 | d8 =c8 B8 | c8 e8 d8 | e16 c8 | d24 | ^c16 c8 | %42
w: lei- * son.|Ky- * ri-|e e-|le- i-|son, _ e-|le- * i-|son, e-|le-|* i-|
 d16 B8 | d8 f8 d8 | =c24 | !fermata!d24 |] z28 ||[M:2/2]!mf! f6 e2 | c4 B4 | c4 B4 | A2 A2 A4 | %51
w: son, e-|le- * *|i-|son.||et in|ter- ra|pax ho-|mi- ni- bus|
 _B2 c2 d4 | c4 =B4 | d6 d2 | f6 e2 | c4 B4 | c4 B2 B2 | A6 A2 | A4 c4 | d4 d4 | _e4 _B4 | d4 c4 | %62
w: bo- nae vo-|lun- ta-|tis. Lau-|da- *|* mus|te, be- ne-|di- ci-|mus te,|a- do-|ra- mus|te, glo-|
 A6 c2 | d4 =B4 | d8 | d6 d2 | ^c8 | B4 B2 B2 | d4 d4 | c6 c2 | B4 B4 | A2 G2 A4 | c4 B4 | A8 || %74
w: ri- fi-|ca- mus|te.|Gra- ti-|as|a- gi- mus|ti- bi,|pro- pter|ma- gnam|glo- ri- am|tu- *|am.|
"^f" A4 A2 B2 | A4 A4 | A4 A2 B2 | A4 A4 | A6 B2 | c4 A2 c2 | A4 G4 | A8 | A4 A2 B2 | A4 A4 | %84
w: Do- mi- ne|De- us,|Rex cae- *|le- stis,|De- us|Pa- ter om-|ni- po-|tens.|Do- mi- ne|Fi- li|
 A6 B2 | A2 A2 A4 | d6 e2 | f2 c4 B2 | d8 | A4 G2 A2 | A6 B2 | A4 G2 A2 | A4 A4 | A4 A2 B2 | d8 | %95
w: u- ni-|ge- ni- te,|Je- *|su Chri- *|ste.|Do- mi- ne|De- us,|a- gnus _|De- i,|Fi- li- us|Pa-|
 d8 ||[M:3/4] z6"^p" | a2 a2 g2 | f4 e2 | d4 c2 | d4 e2 | d4 B2 | d6 | d2 d2 B2 | c2 c4 | A4 G2 | %106
w: tris.||Qui tol- *|lis pec-|ca- *|* ta|mun- *|di,|mi- se- *|re- re|no- *|
 A6 | a2 a2 g2 | f4 e2 | d4 c2 | d4 c2 | d4 B2 | d6 | z6 | z6 | G2 B2 d2 | A4 A2 | G4 _B2 | d4 d2 | %119
w: bis.|Qui tol- *|lis pec-|ca- *|* ta|mun- *|di,|||su- sci- pe|de- pre-|ca- ti-|o- nem|
 _B4 G2 | A6 | f2 f2 e2 | d4 c2 | d4 e2 | f4 e2 | A4 G2 | A2 B2 c2 | G6 | d2 d2 B2 | c6 | A2 G4 | %131
w: no- *|stram.|Qui se- *|des ad|dex- *||te- ram|Pa- * *|tris,|mi- se- *|re-|re no-|
 !fermata!A6 ||[M:4/2]!mf! c6 c2 c4 c4 | e4 d4 f8 | e4 e4 d4 c2 B2 | A2 B2 c2 d2 e4 e4 | f8 f4 f4 | %137
w: bis.|Quo- ni- am tu|so- lus san-|ctus, tu so- lus _|Do- * * mi- nus, tu|so- lus al-|
 e4 d4 c4 B4 |[M:3/2] B8 A4 | A12 | _B8 d4 |[M:4/2] c12 e4 | d4 c4 B8 | d16 || z16 | z16 | %146
w: tis- si- mus, _|Je- *||* su|Chri- *||ste.|||
 G8 B4 c4 | d6 e2 f2 e2 d2 c2 | A6 B2 c4 d4- | d2 e2 f4 g4 f4 | d8 g8 | a8 A4 B4 | c6 d2 e8 | %153
w: Cum san- cto|Spi- * * * * *|ri- tu, in glo-|* ri- a De- i|Pa- *|tris, in _|glo- ri- a|
 B6 c2 d4 e4 | d4 A4 B8 | d8 B8 | A8 B8 | A8 d4 B4 | A8 B8 | A8 d8 | e8 f2 e2 d4 | ^c8 d4 =c4 | %162
w: De- * * *|* * i|Pa- tris,|A- *|* * men,|A- *|* men,|A- * * *|men, A- *|
 A4 c4 B8- | B8 A8- | A16 |] f4 e4 c8 | e4 d4 f4 e4 | ^f8 !fermata!f8 | =f4 e4 d4 e4 | %169
w: |* men.|_|San- * ctus,|san- * ctus, _|san- ctus,|Do- * mi- nus|
 d2 c2 B4 ^c4 c4 | !fermata!d16 || A8 A2 B2 c4 | B8 B2 c2 d4 | c4 G2 A2 B8 | d6 c2 c4 c4 | %175
w: De- * us Sa- ba-|oth.|Ple- ni _ sunt|cae- li _ et|ter- * * ra|glo- ri- a tu-|
 !fermata!B16 || A8 B8 | A4 B4 c8 | B8 d8 | d16 | B8 ^c8 | d8 =c8- | c8 B8 | d16 || c8 B8 | %185
w: a.|Ho- *|san- * na|in ex-|cel-|sis, in|ex- cel-||sis.|Be- ne-|
 c8 G4 G4 | A8 B4 d2 e2 | f4 c4 c8 | B8 c4 d4- | d4 c4 d8 || A8 B8 | A4 B4 c8 | B8 d8 | d16 | %194
w: di- ctus qui|ve- nit in _|no- mi- ne|Do- * *|* mi- ni.|Ho- *|san- * na|in ex-|cel-|
 B8 ^c8 | d8 =c8- | c8 B8 | d16 || d8 c8 | B8 d4 A4 | B4 B2 B2 d4 c4 | B8 B8 | d8 c4 d4 | %203
w: sis, in|ex- cel-||sis.|Ag- nus|De- i, qui|tol- lis pec- ca- ta|mun- di,|mi- se- *|
[M:3/2] e8 c4 |[M:4/2] d8 !fermata!d8 || a6 g2 f4 e4 | d4 e4 f6 f2 | f4 f2 e2 d4 B4 | %208
w: re- re|no- bis.|Ag- * * nus|De- * i, qui|tol- lis pec- ca- ta|
 c2 e2 d2 c2 d8 | B8 A8 | _B8 A8 | =B8 !fermata!d8 || A8 B8 | A8 B4 B4 | d8 f4 f4 | e6 d2 c8 | %216
w: mun- * * * di,|mi- se-|re- re|no- bis.|Ag- nus|De- i, qui|tol- lis pec-|ca- * *|
 B8 A4 B4 | B8 c8 | !fermata!B16 || z16 | z16 | G8 B4 c4 | d6 e2 f2 e2 d2 c2 | A6 B2 c4 d4- | %224
w: * ta _|mun- *|di,|||do- * na|no- * * * * *|* * bis pa-|
 d2 e2 f4 g4 f4 | d8 g8 | a8 A4 B4 | c6 d2 e8 | B6 c2 d4 e4 | d8 ^c8 | d8 B6 c2 | d8 c8 | A8 d8 | %233
w: ||cem, do- na|no- * bis|pa- * * *||cem, no- bis|pa- cem,|do- na|
 B8 A8 | B16 | A16 |] %236
w: no- bis|pa-|cem.|
V:4
 D,8 E,4 G,4 | F,6 E,2 D,8 | G,,8 A,,4 C,4 | D,2 E,2 F,2 G,2 A,4 B,4 | A,4 G,4 F,8 | G,8 A,8 | %6
w: Ky- * ri-|e _ _|_ e- *|le- * * * * *|* i- son,|Ky- ri-|
 D,2 E,2 F,2 G,2 A,4 E,4 | D,4 C,4 B,,2 A,,2 G,,4 | A,,4 C,4 D,8 | E,6 F,2 G,8 | A,8 D,2 E,2 F,4 | %11
w: e _ _ _ _ e-|le- * * * *|* i- son,|Ky- * ri-|e e- * *|
 G,8 D,8 | A,,8 A,,8 | D,16 || z16 | z16 | z16 | z16 | z16 | z16 | z16 | z16 | z16 | z16 | z16 || %25
w: le- *|* i-|son.||||||||||||
 D,8 C,8 | F,,4 A,,4 C,4 _B,,4 | F,,4 A,,4 C,8 | G,4 F,2 E,2 D,4 D,4 | _B,,8 F,,4 F,,4 | G,,16 | %31
w: Ky- *|* ri- e e-|le- i- son,|Ky- ri- * e e-|le- * i-|son,|
 D,6 D,2 G,,8 | D,6 C,2 _B,,4 A,,4 | G,,2 A,,2 B,,2 C,2 D,8 ||[M:3/1] D,8 F,8 E,8 | D,16 G,,8 | %36
w: Ky- ri- e,|Ky- ri- e e-|lei- * * * son.|Ky- * ri-|e e-|
 D,16 A,,8 | D,16 G,8 | C,16 G,,8 | C,16 F,8 | D,8 F,8 D,8 | A,,8 ^C,8 E,8 | D,16 G,8 | D,24 | %44
w: le- i-|son, e-|le- i-|son, e-|le- * *|* * i-|son, e-|le-|
 A,,8 =C,8 E,8 | !fermata!D,24 |] %46
w: * * i-|son.|
 !stemless!D,2 !stemless!G,2 !stemless!F,2 !stemless!E,2 !stemless!F,2 !stemless!G,2 !stemless!F,2 !stemless!E,2 !stemless!D,2 !stemless!E,2 !stemless!F,2 !stemless!E,3 !stemless!D,3 || %47
w: Glo- * ri- * a _ in _ ex- cel- sis De- o,|
[M:2/2]!mf! D,6 E,2 | F,4 G,4 | C,4 G,,4 | D,4 D,2 C,2 | _B,,6 B,,2 | C,2 C,2 G,,4 | D,6 D,2 | %54
w: et in|ter- ra|pax ho-|mi- ni- bus|bo- nae|vo- lun- ta-|tis. Lau-|
 D,6 E,2 | F,4 G,4 | C,4 G,,2 G,,2 | D,6 E,2 | F,2 G,2 A,4 | _B,4 B,4 | _B,4 G,4 | _B,4 A,4 | %62
w: da- *|* mus|te, be- ne-|di- ci-|mus _ te,|a- do-|ra- mus|te, glo-|
 D,6 E,2 | G,6 G,2 | D,8 | D,8 | A,4 G,2 F,2 | E,4 E,2 E,2 | D,4 D,4 | A,6 A,2 | G,4 G,4 | %71
w: ri- fi-|ca- mus|te.|Gra-|* ti- as|a- gi- mus|ti- bi,|pro- pter|ma- gnam|
 F,2 E,2 D,4 | C,4 G,,4 | D,8 ||"^f""^f" D,4 F,2 G,2 | D,2 E,2 F,2 G,2 | D,4 F,2 G,2 | %77
w: glo- ri- am|tu- *|am.|Do- mi- ne|De- * * us,|Rex cae- *|
 D,2 E,2 F,2 G,2 | D,2 E,2 F,2 G,2 | F,2 E,2 D,2 C,2 | D,2 F,2 C,2 G,,2 | D,8 | D,4 F,2 G,2 | %83
w: le- * * stis,|De- * * us|Pa- * ter _|om- * ni- po-|tens.|Do- mi- ne|
 D,2 E,2 F,2 G,2 | D,4 F,2 G,2 | D,2 E,2 F,2 G,2 | D6 C2 | D2 C2 A,2"^(Staggered Basses)" G,2 | %88
w: Fi- * li _|u- ni- *|ge- ni- te, _|Je- *|su _ Chri- *|
 D8 | D,4 E,2 F,2 | D,2 E,2 F,2 G,2 | D,4 E,2 F,2 | D,2 E,2 F,2 G,2 | D,4 F,2 G,2 | D,8 | %95
w: ste.|Do- mi- ne|De- * us, _|a- gnus _|De- * * i,|Fi- li- us|Pa-|
 D,8"^p" ||[M:3/4] D,6- | D,6- | D,6 | D,6- | D,6- | D,6 | D,6- | D,6- | D,6 | D,6- | D,6- | D,6 | %108
w: tris.|Qui|_||tol-|||lis|_||pec-|||
 D,6- | D,6- | D,6 | D,6- | D,6- | D,6 | D,6- | D,6- | D,6 | D,6- | D,6- | D,6 | D,6- | D,6- | %122
w: ca-|||ta|_||mun-|||di,|_||mi-||
 D,6 | D,6- | D,6- | D,6 | D,6- | D,6- | D,6 | D,6 | D,6 | !fermata!D,6 || %132
w: |se-|||re-|||re|no-|bis.|
[M:4/2]!mf! F,6 F,2 F,4 A,4 | C4 G,4 F,4 A,4 | C6 C2 B,4 G,4 | D,4 D,4 A,4 A,2 G,2 | F,8 F,4 A,4 | %137
w: Quo- ni- am tu|so- lus san- *|ctus, tu so- lus|Do- mi- nus, tu _|so- lus al-|
 C4 C4 G,8 |[M:3/2] G,,4 B,,4 D,4- | D,6 E,2 F,4 | _B,,4 D,4 F,4 |[M:4/2] F,12 E,4 | %142
w: tis- si- mus,|Je- * *||* * su|Chri- *|
 D,8 G,4 F,2 E,2 | D,16 || D,8 F,4 G,4 | A,6 B,2 C2 B,2 A,2 G,2 | G,4 F,2 E,2 D,4 C,4 | %147
w: |ste.|Cum san- cto|Spi- * * * * *|ri- * * tu, in|
 B,,4 G,,4 D,4 G,4 | D,2 E,2 F,2 G,2 A,4 G,4 | F,2 E,2 D,4 E,4 F,4 | G,16 | D,8 F,4 G,4 | %152
w: glo- * ri- a|De- * * * * *|* * i Pa- *|tris,|in glo- ri-|
 A,6 B,2 C2 B,2 A,2 G,2 | G,4 F,2 E,2 D,4 C,4 | D,8 G,8 | D,8 G,,8 | D,8 G,,8 | D,4 F,4 G,4 G,,4 | %158
w: a _ _ _ _ _|De- * * * *|* i|Pa- tris,|A- *|* * * men,|
 D,8 G,,8 | D,4 F,4 G,4 G,,4 | A,,4 ^C,4 D,4 F,4 | A,2 B,2 =C2 B,2 A,2 G,2 F,2 E,2 | %162
w: A- *|* * * men,|A- * * *||
 D,2 C,2 A,,4 G,,8- | G,,8 D,8- | D,16 |] z16 | z16 | D,8 !fermata!D,8 | z16 | z8 A,4 A,4 | %170
w: * * men, A-|* men.|_|||San- ctus,||Sa- ba-|
 !fermata!D,16 || D,8 D,4 C,4 | G,8 G,4 A,4 | G,2 F,2 E,4 G,8 | A,4 A,4 G,4 E,2 F,2 | %175
w: oth.|Ple- ni sunt|cae- li et|ter- * * ra|glo- ri- a tu- *|
 G,4 D,4 !fermata!G,,8 || D,8 G,8 | D,12 D,4 | G,8 B,8 | A,4 D,4 F,4 A,4 | G,8 A,4 A,4 | D,8 F,8 | %182
w: * * a.|Ho- *|san- na|in ex-|cel- * * *|sis, in ex-|cel- *|
 C,8 G,,8 | D,16 || z16 | z16 | z16 | z16 | z16 | z16 || D,8 G,8 | D,12 D,4 | G,8 B,8 | %193
w: |sis.|||||||Ho- *|san- na|in ex-|
 A,4 D,4 F,4 A,4 | G,8 A,4 A,4 | D,8 F,8 | C,8 G,,8 | D,16 || D,8 F,4 G,4 | %199
w: cel- * * *|sis, in ex-|cel- *||sis.|Ag- * nus|
 G,,2 A,,2 B,,2 C,2 D,6 D,2 | G,,4 G,,2 G,,2 D,4 E,2 F,2 | G,8 G,,8 | D,8 F,4 D,4 | %203
w: De- * * * i, qui|tol- lis pec- ca- ta _|mun- di,|mi- se- *|
[M:3/2] C,4 B,,4 A,,4 |[M:4/2] G,,2 A,,2 B,,2 C,2 !fermata!D,8 || z16 | z16 | z16 | z16 | %209
w: re- * re|no- * * * bis.|||||
 G,,4 B,,2 C,2 D,4 C,4 | _B,,4 A,,2 G,,2 F,,8 | G,,8 !fermata!D,8 || D,8 G,,8 | D,8 G,4 F,2 E,2 | %214
w: mi- * * * se-|re- * * re|no- bis.|Ag- nus|De- i, qui _|
 D,8 F,4 G,4 | G,8 A,8 | G,4 F,2 E,2 D,8 | G,,4 A,,2 B,,2 C,8 | !fermata!G,,16 || D,8 F,4 G,4 | %220
w: tol- lis pec-|ca- *|* * * ta|mun- * * *|di,|do- * na|
 A,6 B,2 C2 B,2 A,2 G,2 | G,4 F,2 E,2 D,4 C,4 | B,,4 G,,4 D,4 G,4 | D,2 E,2 F,2 G,2 A,4 G,4 | %224
w: no- * * * * *||* bis pa- *||
 F,2 E,2 D,4 E,4 F,4 | G,16 | D,8 F,4 G,4 | A,6 B,2 C2 B,2 A,2 G,2 | G,4 F,2 E,2 D,4 C,4 | %229
w: |cem,|do- * na|no- * * * * *|* * * * bis|
 D,8"^In thanksgiving for the Motu Proprio of Benedict XVI \nSummorum Pontificum.\n\nFriday 14th September 2007\nFeast of the Exaltation of the Holy Cross\n\nFor the missals both of Blessed John XXIII and Paul VI." A,,8 | %230
w: pa- *|
"^A.M.D.G." D,8 G,4 G,,4 | D,8 A,,8 | D,8 F,4 D,4 | G,,8 F,,4 A,,4 | G,,16 | D,16 |] %236
w: cem, no- bis|pa- cem,|do- * na|no- * bis|pa-|cem.|

